X: 8711
T: Crowley's
R: reel
M: 4/4
K: Dmixolydian
M:5/8 7/8
fed dB|AD FED|AD FED|AF Ad BdB|Aeg fd de|
fed dB|AD FED|AD FED|AF Ad BdB|Aeg fd de||
fd fa gfg|eA cBA|eA cBA|fd fa gfg|af ge fde|
fd fa gfg|eA cBA|eA cBA|fd fa gfg|af ge fdd||

